X: 16981
T: He Prefers Bracken
R: reel
M: 4/4
K: Dmajor
|:(3ABc|d2 Ad fdAF|GFEF GABc|(3dfd Ad fdAF|GBAF D2 (3ABc|
d2 Ad fdAF|GFEF GABc|dAce fdAF|GBAF D2:|
|:(3Ace|egaf agaf|egaf gbdf|egag bgec|fbaf edcg|
egaf bgaf|egaf gfdg|fedc dcBA|GABc d2:|

